svgs/sharp-thin/court-sport.svg

<svg xmlns="http://www.w3.org/2000/svg" viewBox="0 0 640 512"><!--! Font Awesome Pro 6.6.0 by @fontawesome - https://fontawesome.com License - https://fontawesome.com/license (Commercial License) Copyright 2024 Fonticons, Inc. --><path d="M16 48l0 80 96 0 16 0 0 16 0 224 0 16-16 0-96 0 0 80 296 0 0-112.3c-49.3-4.1-88-45.3-88-95.7s38.7-91.6 88-95.7L312 48 16 48zM328 351.7L328 464l296 0 0-80-96 0-16 0 0-16 0-224 0-16 16 0 96 0 0-80L328 48l0 112.3c49.3 4.1 88 45.3 88 95.7s-38.7 91.6-88 95.7zm0-175.3l0 159.2c40.4-4 72-38.1 72-79.6s-31.6-75.6-72-79.6zm-16 0c-40.4 4-72 38.1-72 79.6s31.6 75.6 72 79.6l0-159.2zM16 144l0 224 96 0 0-224-96 0zM528 368l96 0 0-224-96 0 0 224zM0 32l16 0 608 0 16 0 0 16 0 416 0 16-16 0L16 480 0 480l0-16L0 48 0 32z"/></svg>

<svg xmlns="http://www.w3.org/2000/svg" viewBox="0 0 640 512"><!--! Font Awesome Pro 6.5.2 by @fontawesome - https://fontawesome.com License - https://fontawesome.com/license (Commercial License) Copyright 2024 Fonticons, Inc. --><path d="M16 48v80h96 16v16V368v16H112 16v80H312V351.7c-49.3-4.1-88-45.3-88-95.7s38.7-91.6 88-95.7V48H16zM328 351.7V464H624V384H528 512V368 144 128h16 96V48H328V160.3c49.3 4.1 88 45.3 88 95.7s-38.7 91.6-88 95.7zm0-175.3V335.6c40.4-4 72-38.1 72-79.6s-31.6-75.6-72-79.6zm-16 0c-40.4 4-72 38.1-72 79.6s31.6 75.6 72 79.6V176.4zM16 144V368h96V144H16zM528 368h96V144H528V368zM0 32H16 624h16V48 464v16H624 16 0V464 48 32z"/></svg>
